icons/svg/checkbox-multiple-marked-outline.svg

﻿<?xml version="1.0" encoding="utf-8"?>
<!DOCTYPE svg PUBLIC "-//W3C//DTD SVG 1.1//EN" "http://www.w3.org/Graphics/SVG/1.1/DTD/svg11.dtd">
<svg xmlns="http://www.w3.org/2000/svg" xmlns:xlink="http://www.w3.org/1999/xlink" version="1.1" baseProfile="full" width="24" height="24" viewBox="0 0 24.00 24.00" enable-background="new 0 0 24.00 24.00" xml:space="preserve">
	<path fill="#000000" fill-opacity="1" stroke-width="0.2" stroke-linejoin="round" d="M 19.9993,15.9981L 19.9992,9.99807L 21.9992,9.99807L 21.9993,15.9981C 21.9993,17.1031 21.1033,17.9981 19.9993,17.9981L 7.99939,17.9981C 6.89439,17.9981 5.9994,17.1031 5.9994,15.9981L 5.99928,3.99808C 5.99928,2.89308 6.89427,1.99809 7.99928,1.99809L 15.9992,1.99808L 15.9992,3.99808L 7.99928,3.99808L 7.99939,15.9991L 19.9993,15.9981 Z M 10.9134,7.08408L 13.9994,10.1701L 20.5852,3.58409L 21.9992,4.99808L 13.9994,12.9981L 9.49939,8.49808L 10.9134,7.08408 Z M 16,20L 16,22L 4.00002,22C 2.89502,22 2.00002,21.105 2.00002,20L 1.99996,7.00002L 3.99996,7.00002L 4.00002,20.001L 16,20 Z "/>
</svg>

<svg xmlns="http://www.w3.org/2000/svg" version="1.1" baseProfile="full" width="24" height="24" viewBox="0 0 24.00 24.00" xml:space="preserve"><path fill="#000" fill-opacity="1" stroke-width=".2" stroke-linejoin="round" d="M20 15.998v-6h2v6c0 1.105-.897 2-2 2H8c-1.106 0-2-.895-2-2v-12c0-1.105.894-2 2-2h8v2H8v12h12zm-9.087-8.914L14 10.17l6.585-6.586L22 4.998l-8 8-4.5-4.5 1.413-1.414zM16 20v2H4c-1.105 0-2-.895-2-2V7h2v13h12z"/></svg>
